Newaita-dark/apps/256/preferences-desktop-notification-bell.svg

<?xml version="1.0" encoding="UTF-8"?>
<svg xmlns="http://www.w3.org/2000/svg" xmlns:xlink="http://www.w3.org/1999/xlink" width="256pt" height="256pt" viewBox="0 0 256 256" version="1.1">
<defs>
<radialGradient id="radial0" gradientUnits="userSpaceOnUse" cx="450.908936" cy="189.579361" fx="450.908936" fy="189.579361" r="21.166656" gradientTransform="matrix(0.00000139336,-0.62506,-1.125108,-0.000000812309,348.246964,508.762635)">
<stop offset="0" style="stop-color:rgb(0%,0%,0%);stop-opacity:0.313725;"/>
<stop offset="0.222222" style="stop-color:rgb(0%,0%,0%);stop-opacity:0.27451;"/>
<stop offset="1" style="stop-color:rgb(0%,0%,0%);stop-opacity:0;"/>
</radialGradient>
<radialGradient id="radial1" gradientUnits="userSpaceOnUse" cx="450.908936" cy="189.579361" fx="450.908936" fy="189.579361" r="21.166656" gradientTransform="matrix(-0.00000139336,0.62506,1.125108,0.000000812309,-94.222712,-60.219856)">
<stop offset="0" style="stop-color:rgb(0%,0%,0%);stop-opacity:0.313725;"/>
<stop offset="0.222222" style="stop-color:rgb(0%,0%,0%);stop-opacity:0.27451;"/>
<stop offset="1" style="stop-color:rgb(0%,0%,0%);stop-opacity:0;"/>
</radialGradient>
<radialGradient id="radial2" gradientUnits="userSpaceOnUse" cx="450.908936" cy="189.579361" fx="450.908936" fy="189.579361" r="21.166656" gradientTransform="matrix(-0.00000139336,-0.62506,1.125108,-0.000000812309,-94.222712,508.762635)">
<stop offset="0" style="stop-color:rgb(0%,0%,0%);stop-opacity:0.313725;"/>
<stop offset="0.222222" style="stop-color:rgb(0%,0%,0%);stop-opacity:0.27451;"/>
<stop offset="1" style="stop-color:rgb(0%,0%,0%);stop-opacity:0;"/>
</radialGradient>
<radialGradient id="radial3" gradientUnits="userSpaceOnUse" cx="450.908936" cy="189.579361" fx="450.908936" fy="189.579361" r="21.166656" gradientTransform="matrix(0.00000139336,0.62506,-1.125108,0.000000812309,348.246948,-60.21986)">
<stop offset="0" style="stop-color:rgb(0%,0%,0%);stop-opacity:0.313725;"/>
<stop offset="0.222222" style="stop-color:rgb(0%,0%,0%);stop-opacity:0.27451;"/>
<stop offset="1" style="stop-color:rgb(0%,0%,0%);stop-opacity:0;"/>
</radialGradient>
<linearGradient id="linear0" gradientUnits="userSpaceOnUse" x1="255.323059" y1="233.5" x2="255.323044" y2="254.666656" gradientTransform="matrix(0.10688,0,0,0.500048,107.661342,107.510269)">
<stop offset="0" style="stop-color:rgb(0%,0%,0%);stop-opacity:0.27451;"/>
<stop offset="1" style="stop-color:rgb(0%,0%,0%);stop-opacity:0;"/>
</linearGradient>
<linearGradient id="linear1" gradientUnits="userSpaceOnUse" x1="254" y1="-94.583336" x2="254" y2="-168.666672" >
<stop offset="0" style="stop-color:rgb(100%,65.490196%,14.901961%);stop-opacity:1;"/>
<stop offset="1" style="stop-color:rgb(100%,71.764706%,30.196078%);stop-opacity:1;"/>
</linearGradient>
<linearGradient id="linear2" gradientUnits="userSpaceOnUse" x1="254" y1="233.5" x2="254" y2="127.666656" >
<stop offset="0" style="stop-color:rgb(100%,65.490196%,14.901961%);stop-opacity:1;"/>
<stop offset="1" style="stop-color:rgb(100%,71.764706%,30.196078%);stop-opacity:1;"/>
</linearGradient>
<linearGradient id="linear3" gradientUnits="userSpaceOnUse" x1="960" y1="1695.118164" x2="960" y2="335.118103" gradientTransform="matrix(0.132304,0,0,0.132304,0,0)">
<stop offset="0" style="stop-color:rgb(100%,65.490196%,14.901961%);stop-opacity:1;"/>
<stop offset="1" style="stop-color:rgb(100%,71.764706%,30.196078%);stop-opacity:1;"/>
</linearGradient>
</defs>
<g id="surface1">
<path style=" stroke:none;fill-rule:nonzero;fill:url(#radial0);" d="M 137.597656 224.269531 L 158.765625 224.269531 L 158.765625 213.6875 L 137.597656 213.6875 Z M 137.597656 224.269531 "/>
<path style=" stroke:none;fill-rule:nonzero;fill:url(#radial1);" d="M 116.429688 224.269531 L 95.257812 224.269531 L 95.257812 234.855469 L 116.429688 234.855469 Z M 116.429688 224.269531 "/>
<path style=" stroke:none;fill-rule:nonzero;fill:url(#radial2);" d="M 116.429688 224.269531 L 95.257812 224.269531 L 95.257812 213.6875 L 116.429688 213.6875 Z M 116.429688 224.269531 "/>
<path style=" stroke:none;fill-rule:nonzero;fill:url(#radial3);" d="M 137.597656 224.269531 L 158.765625 224.269531 L 158.765625 234.855469 L 137.597656 234.855469 Z M 137.597656 224.269531 "/>
<path style=" stroke:none;fill-rule:nonzero;fill:url(#linear0);" d="M 116.429688 221.625 L 137.597656 221.625 L 137.597656 234.855469 L 116.429688 234.855469 Z M 116.429688 221.625 "/>
<path style="fill-rule:nonzero;fill:url(#linear1);stroke-width:3;stroke-linecap:round;stroke-linejoin:round;stroke:rgb(12.941177%,12.941177%,12.941177%);stroke-opacity:1;stroke-miterlimit:4;" d="M 243.414255 -168.668487 L 264.584108 -168.668487 C 270.4273 -168.668487 275.169035 -163.926752 275.169035 -158.08356 L 275.169035 -105.166739 C 275.169035 -99.323547 270.4273 -94.581812 264.584108 -94.581812 L 243.414255 -94.581812 C 237.571063 -94.581812 232.83714 -99.323547 232.83714 -105.166739 L 232.83714 -158.08356 C 232.83714 -163.926752 237.571063 -168.668487 243.414255 -168.668487 Z M 243.414255 -168.668487 " transform="matrix(0.500048,0,0,0.500048,0,107.510266)"/>
<path style="fill-rule:nonzero;fill:url(#linear2);stroke-width:3;stroke-linecap:round;stroke-linejoin:round;stroke:rgb(12.941177%,12.941177%,12.941177%);stroke-opacity:1;stroke-miterlimit:4;" d="M 253.999182 127.670402 C 283.222954 127.670402 306.916003 151.35564 306.916003 180.587223 C 306.916003 209.810995 283.222954 233.496233 253.999182 233.496233 C 224.77541 233.496233 201.08236 209.810995 201.08236 180.587223 C 201.08236 151.35564 224.77541 127.670402 253.999182 127.670402 Z M 253.999182 127.670402 " transform="matrix(0.500048,0,0,0.500048,0,107.510266)"/>
<path style=" stroke:none;fill-rule:nonzero;fill:url(#linear3);" d="M 127.011719 44.335938 C 88.898438 44.335938 58.214844 79.742188 58.214844 123.71875 L 58.214844 134.855469 C 58.214844 161.316406 50.277344 163.960938 22.988281 187.226562 C 18.324219 194.226562 23.339844 203.601562 31.753906 203.605469 L 222.269531 203.605469 C 230.683594 203.601562 235.703125 194.226562 231.035156 187.226562 C 203.75 163.960938 195.808594 161.316406 195.808594 134.855469 L 195.808594 123.71875 C 195.808594 79.742188 165.125 44.335938 127.011719 44.335938 Z M 127.011719 44.335938 "/>
<path style=" stroke:none;fill-rule:nonzero;fill:rgb(100%,100%,100%);fill-opacity:0.392157;" d="M 127.011719 44.335938 C 88.898438 44.335938 58.214844 79.742188 58.214844 123.71875 L 58.214844 127.6875 C 58.214844 83.710938 88.898438 48.304688 127.011719 48.304688 C 165.125 48.304688 195.808594 83.710938 195.808594 127.6875 L 195.808594 123.71875 C 195.808594 79.742188 165.125 44.335938 127.011719 44.335938 Z M 58.214844 134.855469 C 58.214844 161.316406 50.277344 163.960938 22.988281 187.226562 C 21.335938 189.703125 20.898438 192.476562 21.394531 195.027344 C 21.652344 193.71875 22.171875 192.421875 22.988281 191.195312 C 50.277344 167.929688 58.214844 165.285156 58.214844 138.824219 Z M 195.808594 134.855469 L 195.808594 138.824219 C 195.808594 165.285156 203.75 167.929688 231.035156 191.195312 C 231.851562 192.421875 232.371094 193.71875 232.628906 195.027344 C 233.125 192.476562 232.6875 189.703125 231.035156 187.226562 C 203.75 163.960938 195.808594 161.316406 195.808594 134.855469 Z M 195.808594 134.855469 "/>
<path style=" stroke:none;fill-rule:nonzero;fill:rgb(0%,0%,0%);fill-opacity:0.235294;" d="M 21.289062 191.714844 C 20.515625 197.667969 25.058594 203.601562 31.753906 203.605469 L 222.269531 203.605469 C 228.964844 203.601562 233.507812 197.667969 232.738281 191.714844 C 232.101562 196.660156 227.964844 200.957031 222.269531 200.957031 L 31.753906 200.957031 C 26.058594 200.957031 21.921875 196.660156 21.289062 191.714844 Z M 21.289062 191.714844 "/>
<path style=" stroke:none;fill-rule:nonzero;fill:rgb(12.941177%,12.941177%,12.941177%);fill-opacity:1;" d="M 127.011719 43.585938 C 88.433594 43.585938 57.464844 79.394531 57.464844 123.71875 L 57.464844 134.855469 C 57.464844 148.011719 55.535156 155.03125 50.242188 161.777344 C 44.953125 168.523438 36.160156 175.007812 22.5 186.65625 C 22.449219 186.699219 22.402344 186.753906 22.363281 186.808594 C 17.390625 194.273438 22.78125 204.351562 31.753906 204.355469 L 222.269531 204.355469 C 231.242188 204.351562 236.636719 194.273438 231.660156 186.808594 C 231.621094 186.753906 231.574219 186.699219 231.523438 186.65625 C 217.863281 175.007812 209.074219 168.523438 203.78125 161.777344 C 198.488281 155.03125 196.558594 148.011719 196.558594 134.855469 L 196.558594 123.71875 C 196.558594 79.394531 165.589844 43.585938 127.011719 43.585938 Z M 127.011719 45.085938 C 164.660156 45.085938 195.058594 80.089844 195.058594 123.71875 L 195.058594 134.855469 C 195.058594 148.160156 197.101562 155.695312 202.601562 162.703125 C 208.085938 169.695312 216.886719 176.15625 230.457031 187.71875 C 234.726562 194.246094 230.097656 202.851562 222.269531 202.851562 L 31.753906 202.851562 C 23.925781 202.851562 19.296875 194.246094 23.570312 187.71875 C 37.136719 176.15625 45.9375 169.695312 51.425781 162.703125 C 56.921875 155.695312 58.964844 148.160156 58.964844 134.855469 L 58.964844 123.71875 C 58.964844 80.089844 89.363281 45.085938 127.011719 45.085938 Z M 127.011719 45.085938 "/>
</g>
</svg>

<svg xmlns="http://www.w3.org/2000/svg" width="256pt" height="256pt" viewBox="0 0 256 256"><defs><radialGradient id="a" gradientUnits="userSpaceOnUse" cx="450.909" cy="189.579" fx="450.909" fy="189.579" r="21.167" gradientTransform="matrix(0 -.62506 -1.1251 0 348.247 508.763)"><stop offset="0" stop-opacity=".314"/><stop offset=".222" stop-opacity=".275"/><stop offset="1" stop-opacity="0"/></radialGradient><radialGradient id="b" gradientUnits="userSpaceOnUse" cx="450.909" cy="189.579" fx="450.909" fy="189.579" r="21.167" gradientTransform="matrix(0 .62506 1.1251 0 -94.223 -60.22)"><stop offset="0" stop-opacity=".314"/><stop offset=".222" stop-opacity=".275"/><stop offset="1" stop-opacity="0"/></radialGradient><radialGradient id="c" gradientUnits="userSpaceOnUse" cx="450.909" cy="189.579" fx="450.909" fy="189.579" r="21.167" gradientTransform="matrix(0 -.62506 1.1251 0 -94.223 508.763)"><stop offset="0" stop-opacity=".314"/><stop offset=".222" stop-opacity=".275"/><stop offset="1" stop-opacity="0"/></radialGradient><radialGradient id="d" gradientUnits="userSpaceOnUse" cx="450.909" cy="189.579" fx="450.909" fy="189.579" r="21.167" gradientTransform="matrix(0 .62506 -1.1251 0 348.247 -60.22)"><stop offset="0" stop-opacity=".314"/><stop offset=".222" stop-opacity=".275"/><stop offset="1" stop-opacity="0"/></radialGradient><linearGradient id="e" gradientUnits="userSpaceOnUse" x1="255.323" y1="233.5" x2="255.323" y2="254.667" gradientTransform="matrix(.10688 0 0 .50005 107.661 107.51)"><stop offset="0" stop-opacity=".275"/><stop offset="1" stop-opacity="0"/></linearGradient><linearGradient id="f" gradientUnits="userSpaceOnUse" x1="254" y1="-94.583" x2="254" y2="-168.667"><stop offset="0" stop-color="#ffa726"/><stop offset="1" stop-color="#ffb74d"/></linearGradient><linearGradient id="g" gradientUnits="userSpaceOnUse" x1="254" y1="233.5" x2="254" y2="127.667"><stop offset="0" stop-color="#ffa726"/><stop offset="1" stop-color="#ffb74d"/></linearGradient><linearGradient id="h" gradientUnits="userSpaceOnUse" x1="960" y1="1695.118" x2="960" y2="335.118" gradientTransform="scale(.1323)"><stop offset="0" stop-color="#ffa726"/><stop offset="1" stop-color="#ffb74d"/></linearGradient></defs><path d="M137.598 224.27h21.168v-10.583h-21.168zm0 0" fill="url(#a)"/><path d="M116.43 224.27H95.258v10.585h21.172zm0 0" fill="url(#b)"/><path d="M116.43 224.27H95.258v-10.583h21.172zm0 0" fill="url(#c)"/><path d="M137.598 224.27h21.168v10.585h-21.168zm0 0" fill="url(#d)"/><path d="M116.43 221.625h21.168v13.23H116.43zm0 0" fill="url(#e)"/><path d="M243.414-168.668h21.17c5.843 0 10.585 4.741 10.585 10.584v52.917c0 5.843-4.742 10.585-10.585 10.585h-21.17c-5.843 0-10.577-4.742-10.577-10.585v-52.917c0-5.843 4.734-10.584 10.577-10.584zm0 0" transform="matrix(.50005 0 0 .50005 0 107.51)" fill="url(#f)" stroke-width="3" stroke-linecap="round" stroke-linejoin="round" stroke="#212121"/><path d="M254 127.67c29.223 0 52.916 23.686 52.916 52.917 0 29.224-23.693 52.91-52.917 52.91s-52.917-23.686-52.917-52.91c0-29.231 23.693-52.917 52.917-52.917zm0 0" transform="matrix(.50005 0 0 .50005 0 107.51)" fill="url(#g)" stroke-width="3" stroke-linecap="round" stroke-linejoin="round" stroke="#212121"/><path d="M127.012 44.336c-38.114 0-68.797 35.406-68.797 79.383v11.136c0 26.461-7.938 29.106-35.227 52.372-4.664 7 .352 16.375 8.766 16.378H222.27c8.414-.003 13.433-9.378 8.765-16.378-27.285-23.266-35.226-25.91-35.226-52.372V123.72c0-43.977-30.684-79.383-68.797-79.383zm0 0" fill="url(#h)"/><path d="M127.012 44.336c-38.114 0-68.797 35.406-68.797 79.383v3.969c0-43.977 30.683-79.383 68.797-79.383 38.113 0 68.797 35.406 68.797 79.382v-3.968c0-43.977-30.684-79.383-68.797-79.383zm-68.797 90.52c0 26.46-7.938 29.105-35.227 52.37-1.652 2.477-2.09 5.25-1.593 7.801a10.587 10.587 0 0 1 1.593-3.832c27.29-23.265 35.227-25.91 35.227-52.37zm137.594 0v3.968c0 26.461 7.941 29.106 35.226 52.371a10.587 10.587 0 0 1 1.594 3.832c.496-2.55.059-5.324-1.594-7.8-27.285-23.266-35.226-25.91-35.226-52.372zm0 0" fill="#fff" fill-opacity=".392"/><path d="M21.29 191.715c-.774 5.953 3.769 11.887 10.464 11.89H222.27c6.695-.003 11.238-5.937 10.468-11.89-.636 4.945-4.773 9.242-10.468 9.242H31.754c-5.695 0-9.832-4.297-10.465-9.242zm0 0" fill-opacity=".235"/><path d="M127.012 43.586c-38.578 0-69.547 35.809-69.547 80.133v11.136c0 13.157-1.93 20.176-7.223 26.922-5.289 6.746-14.082 13.23-27.742 24.88a.847.847 0 0 0-.137.152c-4.972 7.464.418 17.543 9.39 17.546H222.27c8.972-.003 14.367-10.082 9.39-17.546a.847.847 0 0 0-.137-.153c-13.66-11.648-22.449-18.133-27.742-24.879-5.293-6.746-7.222-13.765-7.222-26.922V123.72c0-44.324-30.97-80.133-69.547-80.133zm0 1.5c37.648 0 68.047 35.004 68.047 78.633v11.136c0 13.305 2.043 20.84 7.543 27.848 5.484 6.992 14.285 13.453 27.855 25.016 4.27 6.527-.36 15.133-8.187 15.133H31.754c-7.828 0-12.457-8.606-8.184-15.133 13.567-11.563 22.367-18.024 27.856-25.016 5.496-7.008 7.539-14.543 7.539-27.848V123.72c0-43.63 30.398-78.633 68.047-78.633zm0 0" fill="#212121"/></svg>
